X:8
T:Gallant Weaver
A:Field Town
O:English
S:Green Fiddle Morris, Toronto, ON
R:hornpipe
M:4/4
L:1/8
% Q:190
% P:
K:D
P:A
z2 | ABAG FGA2 | Bc d2 A2 A2 | Bc d2 c2 d2 | g2 f2 e4 |
ABAG FGA2 | Bc d2 A2 A2 | Bc d2 c2 d2 | e4 d2 |]
P:B
de | f2 gf e2 fe | dfed dcBA | Bc d2 c2 d2 |  g2 f2 e4 |
ABAG FGA2 | Bc d2 A2 A2 | Bc d2 c2 d2 | e4 d2 |]
